icons/dropwizard/dropwizard-plain.svg

<?xml version="1.0" encoding="UTF-8"?>
<svg xmlns="http://www.w3.org/2000/svg" xmlns:xlink="http://www.w3.org/1999/xlink" width="128px" height="128px" viewBox="0 0 128 128" version="1.1">
<g id="surface1">
<path style=" stroke:none;fill-rule:nonzero;fill:rgb(0%,0%,0%);fill-opacity:1;" d="M 64 0.769531 C 61.214844 2.570312 58.539062 8.082031 51.058594 27.289062 C 44.777344 43.289062 45.925781 40.71875 27.742188 79.800781 L 12.832031 111.632812 L 9.992188 112.402344 C -10.59375 117.980469 4.148438 124.828125 42.046875 127.332031 C 50.730469 127.898438 77.871094 127.898438 86.007812 127.332031 C 106.429688 125.894531 119.699219 123.523438 125.160156 120.316406 C 126.253906 119.683594 127.34375 118.714844 127.507812 118.179688 C 128 116.808594 126.089844 115.140625 122.375 113.738281 L 119.261719 112.566406 L 116.96875 107.792969 C 115.714844 105.1875 111.507812 95.765625 107.632812 86.847656 C 103.753906 77.929688 96.984375 62.664062 92.613281 52.945312 C 88.246094 43.191406 82.839844 31.03125 80.601562 25.886719 C 75.46875 14.128906 70.933594 4.875 69.078125 2.4375 C 67.113281 -0.234375 66.019531 -0.566406 64 0.769531 Z M 59.46875 49.371094 C 62.144531 52.710938 62.199219 52.308594 58.59375 57.050781 C 56.902344 59.355469 56.027344 60.125 55.699219 59.792969 C 55.480469 59.523438 54.390625 57.6875 53.242188 55.714844 L 51.222656 52.175781 L 53.84375 49.300781 C 55.316406 47.734375 56.628906 46.429688 56.792969 46.429688 C 56.957031 46.429688 58.15625 47.765625 59.46875 49.371094 Z M 90.648438 73.019531 L 93.050781 75.757812 L 90.101562 79.632812 C 88.464844 81.769531 86.988281 83.40625 86.824219 83.273438 C 86.28125 82.871094 82.457031 76.191406 82.457031 75.625 C 82.457031 74.855469 87.480469 69.746094 87.917969 70.046875 C 88.136719 70.179688 89.390625 71.550781 90.648438 73.019531 Z M 45.324219 94.898438 C 46.527344 96.335938 47.507812 97.671875 47.507812 97.871094 C 47.507812 98.039062 46.253906 99.941406 44.667969 102.046875 C 41.445312 106.488281 42.046875 106.589844 38.769531 100.808594 L 36.96875 97.601562 L 39.589844 94.730469 C 41.066406 93.160156 42.429688 91.957031 42.703125 92.058594 C 42.976562 92.160156 44.121094 93.429688 45.324219 94.898438 Z M 45.324219 94.898438 "/>
</g>
</svg>

<svg xmlns="http://www.w3.org/2000/svg" width="128" height="128"><path style="stroke:none;fill-rule:nonzero;fill:#000;fill-opacity:1" d="M64 .77c-2.785 1.8-5.46 7.312-12.941 26.52-6.282 16-5.133 13.429-23.317 52.51l-14.91 31.833-2.84.77c-20.586 5.577-5.844 12.425 32.055 14.929 8.683.566 35.824.566 43.96 0 20.423-1.437 33.692-3.809 39.153-7.016 1.094-.632 2.184-1.601 2.348-2.136.492-1.371-1.418-3.04-5.133-4.442l-3.113-1.172-2.293-4.773c-1.254-2.606-5.461-12.027-9.336-20.945-3.88-8.918-10.649-24.184-15.02-33.903-4.367-9.754-9.773-21.914-12.011-27.058-5.133-11.758-9.668-21.012-11.524-23.45C67.113-.233 66.02-.566 64 .77Zm-4.531 48.6c2.676 3.34 2.73 2.938-.875 7.68-1.692 2.304-2.567 3.074-2.895 2.742-.219-.27-1.308-2.105-2.457-4.078l-2.02-3.54 2.622-2.874c1.472-1.567 2.785-2.871 2.949-2.871.164 0 1.363 1.336 2.676 2.941Zm31.18 23.649 2.402 2.738-2.95 3.875c-1.636 2.137-3.113 3.773-3.277 3.64-.543-.402-4.367-7.082-4.367-7.648 0-.77 5.023-5.879 5.461-5.578.219.133 1.473 1.504 2.73 2.973ZM45.323 94.898c1.203 1.438 2.184 2.774 2.184 2.973 0 .168-1.254 2.07-2.84 4.176-3.223 4.441-2.621 4.543-5.898-1.238l-1.801-3.207 2.62-2.872c1.477-1.57 2.84-2.773 3.114-2.671.274.101 1.418 1.37 2.621 2.84Zm0 0"/></svg>
